X:246
M:3/2
L:1/4
K:Ab
E2 | A A B2 B2 | c B A2 B2 | c c d2 c2 | B4 e2 | e c c2 A2 | A F F2 !sintro!(A F) | E A A2 B2 | A4 !eintro!|] Special thanks for this text goes to Dr. Norman Nagel, whose insights inspired it.
